**kern	**kern	**kern	**kern	**harm
!bass	!tenor	!alto	!soprno	!
*Iorgan	*Iorgan	*Iorgan	*Iorgan	*
*clefF4	*clefF4	*clefG2	*clefG2	*
*M4/4	*M4/4	*M4/4	*M4/4	*M4/4
*met(C)	*met(C)	*met(C)	*met(C)	*met(C)
*MM60	*MM60	*MM60	*MM60	*MM60
*k[]	*k[]	*k[]	*k[]	*k[]
*a:	*a:	*a:	*a:	*a:
4A	4c	4e	4a	i
4G#	4B	4e	4b	Vb
4A	4A	4e	4cc	i
4AA;	4A;	4e;	4cc;	i;
=	=	=	=	=
4A	4A	4e	4cc	i
4G	4B	4g	4dd	V/III
4c	4c	4g	4ee	I/III
4C;	4c;	4g;	4ee;	I/III;
=	=	=	=	=
8c	8c	4g	4ee	I/III
8B	8d	.	.	.
8A	8c	4cc[	4ee	i
8G	8B	.	.	.
8F#	8A	8cc]	4dd	V7b/-VII
8G#	8B	4b	.	viio
4A	8c	.	4cc	i
.	8e	8a	.	.
=	=	=	=	=
4D	4f	4a	.4b	iv7
4E	8e	4g#	.	V
.	8d	.	8a	.
2AA;	2c#;	2e;	2a;	I;
=	=	=	=	=
8A	8c#	4a	4ee	I
8B	8d	.	.	.
8c#	8e	4a	4ee	Ib
8A	8c#	.	.	.
8d	4d	4a	4ff	iv
8cn	.	.	.	.
8B-	4d	4b-	4ff	-II
8A	.	.	.	.
=	=	=	=	=
8G	4d	4b-	4ee	viiD7/VI
8E	.	.	.	.
4A	4c#	8a	4ee	V/IV
.	.	8g	.	.
4D	4d	8g	4ee	IV
.	.	8e	.	.
4D;	4A;	4f#;	4dd;	IV;
*C:	*C:	*C:	*C:	*C:
=	=	=	=	=
8G	8B	4g	4dd	V
8A	8c	.	.	.
8B	8d	4g	4dd	Vb
8G	8B	.	.	.
8c	4c	4g	4ee	I
8B	.	.	.	.
8A	4c	4a	4ee	vi
8G	.	.	.	.
=	=	=	=	=
8F	4c	4a	4dd	ii7b
8D	.	.	.	.
4G	4B	8g	4dd	V
.	.	8f	.	.
4C	4c	8f	4cc	I
.	.	8d	.	.
4C;	4G;	4e;	4cc;	I;
*a:	*a:	*a:	*a:	*a:
=	=	=	=	=
4F	4A	4f	4cc	VI
8E	4A	4f	4dd	iv
8D	.	.	.	.
8G#	4B	4e	4ee	Vb
8E	.	.	.	.
4A	4A	4e	8dd	I
.	.	.	8cc	.
=	=	=	=	=
4D#	4A	4f#	4b	V7b/V
4E	4G#	8e	4b	V
.	.	8d	.	.
4A	4A	8d	4a	I
.	.	8B	.	.
4AA;	4E;	4c#;	4a;	I;
===	===	===	===	===
*-	*-	*-	*-	*-
